svgs/light/user-tag.svg

<svg xmlns="http://www.w3.org/2000/svg" viewBox="0 0 640 512"><!--! Font Awesome Pro 6.0.0-alpha3 by @fontawesome - https://fontawesome.com License - https://fontawesome.com/license (Commercial License) --><path d="M630.6 364.8L540.4 274.4c-12-12-28.25-18.75-45.13-18.75H415.9c-17.62 0-32 14.38-32 32l-.0588 79.58c0 17 6.647 33.15 18.65 45.15l90.31 90.27C499 508.8 507.3 512 515.4 512c8.25 0 16.33-3.125 22.58-9.375l92.49-92.5C643.1 397.5 643.1 377.3 630.6 364.8zM515.5 479.9l-90.25-90.25c-6-6-9.375-14.12-9.375-22.62V287.6h79.38c8.5 0 16.5 3.375 22.5 9.5l90.25 90.25L515.5 479.9zM463.9 319.9c-8.75 0-16 7.25-16 16s7.195 15.94 15.95 15.94c8.875 0 16-7.25 16-16S472.8 319.9 463.9 319.9zM400 480H34.66c-1.451 0-2.662-1.207-2.662-2.658C31.1 399.4 95.4 336 173.3 336H274.7c19.65 0 38.33 4.1 55.32 11.42c10.39 4.479 21.91-3.477 21.91-14.79c0-6.277-3.576-12.17-9.346-14.64C321.7 309.1 298.8 304 274.7 304H173.3c-95.8 0-173.5 77.56-173.3 173.4C.022 496.4 15.63 512 34.66 512H400c8.836 0 16-7.164 16-16C416 487.2 408.8 480 400 480zM224 256c70.7 0 128-57.31 128-128S294.7 0 224 0C153.3 0 96 57.31 96 128S153.3 256 224 256zM224 32c52.94 0 96 43.06 96 96c0 52.93-43.06 96-96 96S128 180.9 128 128C128 75.06 171.1 32 224 32z"/></svg>

<svg xmlns="http://www.w3.org/2000/svg" viewBox="0 0 640 512"><!-- Font Awesome Pro 6.0.0-alpha2 by @fontawesome - https://fontawesome.com License - https://fontawesome.com/license (Commercial License) --><path d="M630.639 364.625L540.389 274.375C528.389 262.375 512.139 255.625 495.264 255.625H415.889C398.264 255.625 383.889 270 383.889 287.625V367C383.889 384 390.639 400.25 402.639 412.25L492.764 502.625C499.014 508.75 507.264 512 515.389 512C523.639 512 531.764 508.875 538.014 502.625L630.514 410.125C643.139 397.5 643.139 377.125 630.639 364.625ZM515.514 479.875L425.264 389.625C419.264 383.625 415.889 375.5 415.889 367V287.625H495.264C503.764 287.625 511.764 291 517.764 297.125L608.014 387.375L515.514 479.875ZM463.889 319.875C455.139 319.875 447.889 327.125 447.889 335.875S455.139 351.875 463.889 351.875C472.764 351.875 479.889 344.625 479.889 335.875S472.764 319.875 463.889 319.875ZM399.998 480H34.662C33.211 480 32 478.793 32 477.342C31.994 399.404 95.397 336 173.334 336H274.662C294.311 336 312.99 340.1 329.979 347.422C340.373 351.9 351.889 343.945 351.889 332.627C351.889 326.35 348.313 320.461 342.543 317.988C321.692 309.051 298.787 304 274.662 304H173.334C77.537 304 -0.115 381.715 0 477.543C0.022 496.574 15.631 512 34.662 512H399.998C408.834 512 415.998 504.836 415.998 496C415.998 487.162 408.834 480 399.998 480ZM223.998 256C294.693 256 351.998 198.691 351.998 128S294.693 0 223.998 0C153.311 0 95.998 57.309 95.998 128S153.311 256 223.998 256ZM223.998 32C276.934 32 319.998 75.064 319.998 128C319.998 180.934 276.934 224 223.998 224S127.998 180.934 127.998 128C127.998 75.064 171.063 32 223.998 32Z"/></svg>
